erlendweb/public/flag_no.svg

<?xml version="1.0" encoding="UTF-8"?>
<svg enable-background="new 0 0 512 512" version="1.1" viewBox="0 0 512 512" xml:space="preserve" xmlns="http://www.w3.org/2000/svg">
	<circle cx="256" cy="256" r="256" fill="#F0F0F0" />
	<g fill="#D80027">
		<path d="m8.819 322.78c14.812 54.959 47.457 102.59 91.355 136.32v-136.32h-91.355z" />
		<path d="m233.74 511.03c7.338 0.632 14.759 0.974 22.261 0.974 118.28 0 217.8-80.221 247.18-189.22h-269.44v188.24z" />
		<path d="m503.18 189.22c-29.376-109-128.9-189.22-247.18-189.22-7.502 0-14.923 0.342-22.261 0.974v188.24h269.44z" />
		<path d="m100.17 52.895c-43.898 33.73-76.543 81.363-91.355 136.32h91.355v-136.32z" />
	</g>
	<path d="m509.83 222.61h-309.48v-216.52c-23.658 5.246-46.087 13.749-66.783 25.042v191.48h-131.4c-1.425 10.931-2.167 22.075-2.167 33.392s0.742 22.461 2.167 33.391h131.4v191.48c20.696 11.292 43.125 19.797 66.783 25.042v-216.52h309.48c1.423-10.931 2.167-22.075 2.167-33.392s-0.744-22.461-2.167-33.391z" fill="#0052B4" />
</svg>

<?xml version="1.0" encoding="iso-8859-1"?>
<!-- Generator: Adobe Illustrator 19.0.0, SVG Export Plug-In . SVG Version: 6.00 Build 0)  -->
<svg version="1.1" id="Layer_1" xmlns="http://www.w3.org/2000/svg" xmlns:xlink="http://www.w3.org/1999/xlink" x="0px" y="0px"
	 viewBox="0 0 512 512" style="enable-background:new 0 0 512 512;" xml:space="preserve">
<circle style="fill:#F0F0F0;" cx="256" cy="256" r="256"/>
<g>
	<path style="fill:#D80027;" d="M8.819,322.783c14.812,54.959,47.457,102.593,91.355,136.322V322.783H8.819z"/>
	<path style="fill:#D80027;" d="M233.739,511.026C241.077,511.658,248.498,512,256,512c118.279,0,217.805-80.221,247.181-189.217
		H233.739V511.026z"/>
	<path style="fill:#D80027;" d="M503.181,189.217C473.805,80.221,374.279,0,256,0c-7.502,0-14.923,0.342-22.261,0.974v188.243
		H503.181z"/>
	<path style="fill:#D80027;" d="M100.174,52.895c-43.898,33.73-76.543,81.363-91.355,136.322h91.355V52.895z"/>
</g>
<path style="fill:#0052B4;" d="M509.833,222.609H200.349h-0.001V6.085c-23.658,5.246-46.087,13.749-66.783,25.042v191.48v0.001
	H2.167C0.742,233.539,0,244.683,0,256s0.742,22.461,2.167,33.391h131.397h0.001v191.481c20.696,11.292,43.125,19.797,66.783,25.042
	V289.394v-0.002h309.485C511.256,278.461,512,267.317,512,256S511.256,233.539,509.833,222.609z"/>
<g>
</g>
<g>
</g>
<g>
</g>
<g>
</g>
<g>
</g>
<g>
</g>
<g>
</g>
<g>
</g>
<g>
</g>
<g>
</g>
<g>
</g>
<g>
</g>
<g>
</g>
<g>
</g>
<g>
</g>
</svg>
